src/assets/images/calendar-icon.svg

<?xml version="1.0" encoding="UTF-8"?>
<!DOCTYPE svg PUBLIC "-//W3C//DTD SVG 1.1//EN" "http://www.w3.org/Graphics/SVG/1.1/DTD/svg11.dtd">
<!-- Creator: CorelDRAW 2020 (64-Bit) -->
<svg xmlns="http://www.w3.org/2000/svg" xml:space="preserve" width="5.02327in" height="5.24169in" version="1.1" style="shape-rendering:geometricPrecision; text-rendering:geometricPrecision; image-rendering:optimizeQuality; fill-rule:evenodd; clip-rule:evenodd"
viewBox="0 0 586.51 612.02"
 xmlns:xlink="http://www.w3.org/1999/xlink"
 xmlns:xodm="http://www.corel.com/coreldraw/odm/2003">
 <defs>
  <style type="text/css">
   <![CDATA[
    .fil0 {fill:white;fill-rule:nonzero}
   ]]>
  </style>
 </defs>
 <g id="Layer_x0020_1">
  <metadata id="CorelCorpID_0Corel-Layer"/>
  <path class="fil0" d="M195.51 275.41l-65.17 0 0 61.2 65.17 0 0 -61.2zm130.34 0l-65.17 0 0 61.2 65.17 0 0 -61.2zm130.34 0l-65.17 0 0 61.2 65.17 0 0 -61.2zm65.16 -214.2l-32.58 0 0 -61.2 -65.17 0 0 61.2 -260.67 0 0 -61.2 -65.17 0 0 61.2 -32.58 0c-36.17,0 -64.84,27.54 -64.84,61.2l-0.33 428.41c0,33.67 29,61.2 65.17,61.2l456.17 0c35.84,0 65.17,-27.54 65.17,-61.2l0 -428.41c0,-33.67 -29.33,-61.2 -65.17,-61.2zm0 489.61l-456.17 0 0 -336.61 456.17 0 0 336.61z"/>
 </g>
</svg>

<svg xmlns="http://www.w3.org/2000/svg" xml:space="preserve" width="482.234" height="503.202" style="shape-rendering:geometricPrecision;text-rendering:geometricPrecision;image-rendering:optimizeQuality;fill-rule:evenodd;clip-rule:evenodd" viewBox="0 0 586.51 612.02"><path d="M195.51 275.41h-65.17v61.2h65.17v-61.2zm130.34 0h-65.17v61.2h65.17v-61.2zm130.34 0h-65.17v61.2h65.17v-61.2zm65.16-214.2h-32.58V.01H423.6v61.2H162.93V.01H97.76v61.2H65.18C29.01 61.21.34 88.75.34 122.41L.01 550.82c0 33.67 29 61.2 65.17 61.2h456.17c35.84 0 65.17-27.54 65.17-61.2V122.41c0-33.67-29.33-61.2-65.17-61.2zm0 489.61H65.18V214.21h456.17v336.61z" style="fill:#fff;fill-rule:nonzero"/></svg>
